SF_Symbols/speaker.slash.fill.svg

<?xml version="1.0" encoding="UTF-8"?>
<svg xmlns="http://www.w3.org/2000/svg" xmlns:xlink="http://www.w3.org/1999/xlink" width="24" height="24" viewBox="0 0 24 24" version="1.1">
<g id="surface1">
<path style=" stroke:none;fill-rule:nonzero;fill:rgb(100%,100%,100%);fill-opacity:1;" d="M 6.046875 15.808594 L 9.386719 15.808594 C 9.503906 15.808594 9.601562 15.84375 9.679688 15.914062 L 14.742188 20.648438 C 15.015625 20.90625 15.273438 21.09375 15.515625 21.210938 C 15.757812 21.328125 16.011719 21.386719 16.277344 21.386719 C 16.582031 21.386719 16.84375 21.308594 17.0625 21.152344 C 17.28125 20.996094 17.4375 20.75 17.53125 20.414062 L 4.171875 7.066406 C 3.828125 7.457031 3.65625 8.042969 3.65625 8.824219 L 3.65625 13.3125 C 3.65625 14.15625 3.855469 14.785156 4.253906 15.199219 C 4.652344 15.605469 5.25 15.808594 6.046875 15.808594 Z M 17.613281 14.097656 L 17.613281 2.097656 C 17.613281 1.714844 17.488281 1.390625 17.238281 1.125 C 16.988281 0.851562 16.664062 0.714844 16.265625 0.714844 C 15.992188 0.714844 15.746094 0.78125 15.527344 0.914062 C 15.308594 1.039062 15.046875 1.242188 14.742188 1.523438 L 10.03125 5.894531 C 9.96875 5.957031 9.902344 5.988281 9.832031 5.988281 L 9.480469 5.988281 Z M 21.667969 22.617188 C 21.839844 22.796875 22.050781 22.886719 22.300781 22.886719 C 22.558594 22.886719 22.769531 22.796875 22.933594 22.617188 C 23.113281 22.4375 23.203125 22.222656 23.203125 21.972656 C 23.203125 21.730469 23.113281 21.519531 22.933594 21.339844 L 2.871094 1.277344 C 2.691406 1.105469 2.476562 1.019531 2.226562 1.019531 C 1.976562 1.011719 1.761719 1.097656 1.582031 1.277344 C 1.410156 1.449219 1.324219 1.664062 1.324219 1.921875 C 1.324219 2.171875 1.410156 2.382812 1.582031 2.554688 Z M 21.667969 22.617188 "/>
</g>
</svg>

<svg xmlns="http://www.w3.org/2000/svg" width="24" height="24"><path style="stroke:none;fill-rule:nonzero;fill:#fff;fill-opacity:1" d="M6.047 15.809h3.34c.117 0 .215.035.293.105l5.062 4.734c.274.258.531.446.774.563.242.117.496.176.761.176.305 0 .567-.078.785-.235.22-.156.375-.402.47-.738L4.171 7.066c-.344.391-.516.977-.516 1.758v4.489c0 .843.2 1.472.598 1.886.398.406.996.61 1.793.61Zm11.566-1.711v-12c0-.383-.125-.707-.375-.973-.25-.273-.574-.41-.972-.41-.274 0-.52.066-.739.2-.218.124-.48.327-.785.608l-4.71 4.372a.276.276 0 0 1-.2.093H9.48Zm4.055 8.52c.172.179.383.269.633.269.258 0 .469-.09.633-.27a.873.873 0 0 0 .27-.644.848.848 0 0 0-.27-.633L2.87 1.277a.906.906 0 0 0-.644-.257.834.834 0 0 0-.645.257.863.863 0 0 0-.258.645c0 .25.086.46.258.633Zm0 0"/></svg>
